docs/assets/images/drupal.svg

<svg width="50" height="50" viewBox="0 0 50 50" fill="none" xmlns="http://www.w3.org/2000/svg">
<g clip-path="url(#clip0_913_28238)">
<path d="M31.2739 13.8324C28.5202 11.0993 25.8929 8.49394 25.111 5.55554C24.329 8.49394 21.7013 11.0993 18.9481 13.8324C14.8182 17.9307 10.1357 22.5755 10.1357 29.542C10.1357 33.4859 11.7135 37.2683 14.522 40.057C17.3305 42.8458 21.1396 44.4125 25.1114 44.4125C29.0832 44.4125 32.8923 42.8458 35.7008 40.057C38.5093 37.2683 40.0871 33.4859 40.0871 29.542C40.0871 22.576 35.405 17.9307 31.2739 13.8324V13.8324ZM16.5009 33.0071C15.5826 32.9761 12.1938 27.1759 18.4807 21.0001L22.6409 25.5127C22.6767 25.5477 22.7045 25.5898 22.7226 25.6363C22.7408 25.6828 22.7488 25.7325 22.7462 25.7823C22.7435 25.8321 22.7303 25.8808 22.7074 25.9251C22.6845 25.9694 22.6524 26.0085 22.6132 26.0396C21.6204 27.0506 17.3891 31.264 16.8632 32.7209C16.7546 33.0217 16.5961 33.0103 16.5009 33.0071H16.5009ZM25.1114 40.6515C24.435 40.6515 23.7653 40.5193 23.1404 40.2622C22.5155 40.0052 21.9477 39.6285 21.4694 39.1536C20.9912 38.6787 20.6118 38.1149 20.353 37.4944C20.0941 36.8739 19.9609 36.2088 19.9609 35.5372C19.9609 34.2423 20.4793 33.0883 21.2447 32.159C22.1734 31.0313 25.1107 27.8597 25.1107 27.8597C25.1107 27.8597 28.0031 31.0779 28.9699 32.1482C29.812 33.0778 30.273 34.2869 30.2619 35.5372C30.2619 36.8936 29.7193 38.1944 28.7534 39.1536C27.7875 40.1127 26.4774 40.6515 25.1114 40.6515V40.6515ZM34.9695 32.3579C34.8585 32.5989 34.6067 33.0014 34.2668 33.0137C33.661 33.0356 33.5962 32.7273 33.1484 32.0693C32.1654 30.6247 23.5859 21.7211 21.9812 19.9992C20.5697 18.4846 21.7825 17.4169 22.345 16.8574C23.0508 16.1553 25.1109 14.1109 25.1109 14.1109C25.1109 14.1109 31.2537 19.8982 33.8125 23.8526C36.3713 27.8069 35.4895 31.2287 34.9695 32.3579" fill="#009CDE"/>
</g>
<defs>
<clipPath id="clip0_913_28238">
<rect width="40.5797" height="38.8889" fill="white" transform="translate(4.86133 5.55554)"/>
</clipPath>
</defs>
</svg>

<svg xmlns="http://www.w3.org/2000/svg" fill="none" viewBox="0 0 50 50"><g clip-path="url(#a)"><path fill="#009CDE" d="M31.274 13.832C28.52 11.1 25.893 8.494 25.11 5.556c-.782 2.938-3.41 5.543-6.163 8.276-4.13 4.099-8.812 8.744-8.812 15.71 0 3.944 1.578 7.726 4.386 10.515a15.03 15.03 0 0 0 10.59 4.355A15.03 15.03 0 0 0 35.7 40.058a14.818 14.818 0 0 0 4.386-10.515c0-6.966-4.682-11.611-8.813-15.71zM16.5 33.007c-.918-.03-4.307-5.831 1.98-12.007l4.16 4.513a.35.35 0 0 1-.028.527c-.993 1.01-5.224 5.224-5.75 6.68-.108.302-.267.29-.362.287zm8.61 7.645a5.18 5.18 0 0 1-3.642-1.498 5.112 5.112 0 0 1-1.508-3.617c0-1.295.518-2.449 1.284-3.378.928-1.128 3.866-4.3 3.866-4.3s2.892 3.219 3.859 4.29a4.982 4.982 0 0 1 1.292 3.388 5.096 5.096 0 0 1-1.509 3.617 5.17 5.17 0 0 1-3.642 1.497zm9.858-8.294c-.11.24-.362.643-.702.656-.606.022-.67-.287-1.119-.945-.983-1.444-9.562-10.348-11.167-12.07-1.411-1.514-.199-2.582.364-3.142l2.766-2.746s6.143 5.787 8.701 9.742c2.56 3.954 1.678 7.376 1.157 8.505"/></g><defs><clipPath id="a"><path fill="#fff" d="M0 0H40.58V38.889H0z" transform="translate(4.861 5.556)"/></clipPath></defs></svg>
